packages/core/src/svgs/tokens/branded/PYTH.svg

<svg width="24" height="24" viewBox="0 0 24 24" fill="none" xmlns="http://www.w3.org/2000/svg">
<path d="M13.7142 10C13.7142 11.1028 12.7657 11.7143 12 11.7143V14C12.7912 14 13.5645 13.7654 14.2222 13.3259C14.8801 12.8863 15.3928 12.2616 15.6954 11.5307C15.9982 10.7998 16.0774 9.9955 15.9232 9.21964C15.7688 8.4437 15.3878 7.73099 14.8284 7.17157C14.269 6.61216 13.5562 6.2312 12.7804 6.07686C12.0044 5.92252 11.2001 6.00174 10.4693 6.30448C9.73838 6.60723 9.11359 7.11992 8.67412 7.77772C8.2346 8.4355 8 9.20884 8 10V19.8286L10.2857 22V10C10.2857 9.2571 10.8972 8.2857 12 8.2857C12.4546 8.2857 12.8906 8.46632 13.2121 8.78777C13.5337 9.10924 13.7142 9.54537 13.7142 10Z" fill="#110F24"/>
<path d="M12 2.00002C10.8645 1.99746 9.7417 2.23782 8.70688 2.70499C7.67201 3.17215 6.74907 3.85531 6 4.70859C4.70889 6.16859 3.99738 8.05101 4.00001 10V16L6.28571 18.2V10C6.28571 7.01716 8.68571 4.28574 12 4.28574C15.3142 4.28574 17.7142 7.04573 17.7142 10C17.7142 13.3143 14.9829 15.7143 12 15.7143V18C13.0505 18 14.0909 17.7931 15.0614 17.3911C16.0321 16.989 16.914 16.3998 17.6569 15.6568C18.3997 14.914 18.989 14.032 19.391 13.0615C19.793 12.0908 20 11.0506 20 10C20 8.9495 19.793 7.90914 19.391 6.93854C18.989 5.96795 18.3997 5.08603 17.6569 4.34316C16.914 3.6003 16.0321 3.01102 15.0614 2.60898C14.0909 2.20695 13.0505 2.00002 12 2.00002Z" fill="#110F24"/>
</svg>

<svg xmlns="http://www.w3.org/2000/svg" width="24" height="24" fill="none" viewBox="0 0 24 24">
    <path fill="#110F24" d="M13.714 10c0 1.103-.948 1.714-1.714 1.714V14a4 4 0 1 0-4-4v9.829L10.286 22V10c0-.743.611-1.714 1.714-1.714A1.714 1.714 0 0 1 13.714 10"/>
    <path fill="#110F24" d="M12 2a7.96 7.96 0 0 0-6 2.709A7.97 7.97 0 0 0 4 10v6l2.286 2.2V10c0-2.983 2.4-5.714 5.714-5.714s5.714 2.76 5.714 5.714c0 3.314-2.731 5.714-5.714 5.714V18a8 8 0 1 0 0-16"/>
</svg>
